X: 12573
T: Farewell To Spain
R: waltz
M: 3/4
K: Bminor
F2|B2 B2 A2|B4 Bc|d4 cB|A2 F2 FE|F2 B2 A2|B4 Bc|d4 ed|c4 F2|
F2 B2 BA|B4 Bc|d3 e c2|BA F2 FE|F2 B2 BA|B4 Bc|d4 ed|c4 de|
f2 d2 f2|e4 de|f2 B2 Bc|BA F2 B2|A2 F2 E2|D3 E F2|F2 B2 A2|B4 A2|
d2 f2 af|e4 de|f2 B2 Bc|BA F2 B2|A2 F2 E2|D3 E F2|F2 B2 A2|B4 z2|

